assets/img/braze_icons/toggle-01-left.svg

<svg fill="none" height="24" viewBox="0 0 24 24" width="24" xmlns="http://www.w3.org/2000/svg"><path clip-rule="evenodd" d="m7 6c-3.31371 0-6 2.68629-6 6 0 3.3137 2.68629 6 6 6h10c3.3137 0 6-2.6863 6-6 0-3.31371-2.6863-6-6-6zm4.4722 10c.9501-1.0615 1.5278-2.4633 1.5278-4s-.5777-2.93849-1.5278-4h5.5278c2.2091 0 4 1.79086 4 4 0 2.2091-1.7909 4-4 4z" fill="#801ed7" fill-rule="evenodd"/></svg>

<svg width="24" height="24" viewBox="0 0 24 24" fill="none" xmlns="http://www.w3.org/2000/svg">
<path fill-rule="evenodd" clip-rule="evenodd" d="M7 6C3.68629 6 1 8.68629 1 12C1 15.3137 3.68629 18 7 18H17C20.3137 18 23 15.3137 23 12C23 8.68629 20.3137 6 17 6H7ZM11.4722 16C12.4223 14.9385 13 13.5367 13 12C13 10.4633 12.4223 9.06151 11.4722 8H17C19.2091 8 21 9.79086 21 12C21 14.2091 19.2091 16 17 16H11.4722Z" fill="#801ED7"/>
</svg>
